build/img/sprite.svg

<svg xmlns="http://www.w3.org/2000/svg" xmlns:xlink="http://www.w3.org/1999/xlink"><symbol id="fb_icon" viewBox="0 0 12 24">
<path d="M11.5481 0.0049936L8.66986 0C5.43624 0 3.34653 2.31828 3.34653 5.90643V8.62969H0.452578C0.202506 8.62969 0 8.84891 0 9.11932V13.065C0 13.3354 0.202736 13.5544 0.452578 13.5544H3.34653V23.5106C3.34653 23.781 3.54904 24 3.79911 24H7.5749C7.82497 24 8.02748 23.7808 8.02748 23.5106V13.5544H11.4112C11.6613 13.5544 11.8638 13.3354 11.8638 13.065L11.8652 9.11932C11.8652 8.98948 11.8174 8.86514 11.7326 8.77326C11.6479 8.68138 11.5324 8.62969 11.4123 8.62969H8.02748V6.32115C8.02748 5.21157 8.27201 4.64829 9.60873 4.64829L11.5477 4.64755C11.7975 4.64755 12 4.42833 12 4.15817V0.494367C12 0.224462 11.7977 0.00549296 11.5481 0.0049936Z" fill="white"/>
</symbol><symbol id="insta_icon" viewBox="0 0 24 24">
<path d="M17.5034 0H6.49658C2.91431 0 0 2.91431 0 6.49658V17.5036C0 21.0857 2.91431 24 6.49658 24H17.5036C21.0857 24 24 21.0857 24 17.5036V6.49658C24 2.91431 21.0857 0 17.5034 0V0ZM12 18.5623C8.38147 18.5623 5.43768 15.6185 5.43768 12C5.43768 8.38147 8.38147 5.43768 12 5.43768C15.6185 5.43768 18.5623 8.38147 18.5623 12C18.5623 15.6185 15.6185 18.5623 12 18.5623ZM18.7192 6.98529C17.6499 6.98529 16.7802 6.11554 16.7802 5.0462C16.7802 3.97687 17.6499 3.10693 18.7192 3.10693C19.7886 3.10693 20.6585 3.97687 20.6585 5.0462C20.6585 6.11554 19.7886 6.98529 18.7192 6.98529Z" fill="white"/>
<path d="M12.0001 6.84448C9.15753 6.84448 6.84473 9.1571 6.84473 11.9998C6.84473 14.8423 9.15753 17.1552 12.0001 17.1552C14.8428 17.1552 17.1554 14.8423 17.1554 11.9998C17.1554 9.1571 14.8428 6.84448 12.0001 6.84448Z" fill="white"/>
<path d="M18.7186 4.51398C18.4253 4.51398 18.1865 4.75275 18.1865 5.04608C18.1865 5.33942 18.4253 5.57819 18.7186 5.57819C19.0121 5.57819 19.2509 5.3396 19.2509 5.04608C19.2509 4.75256 19.0121 4.51398 18.7186 4.51398Z" fill="white"/>
</symbol><symbol id="logo" viewBox="0 0 87 20">
<path d="M0.676 5.168C0.676 3.69467 1.03133 2.568 1.742 1.788C2.45267 0.990666 3.50133 0.592 4.888 0.592C6.27467 0.592 7.32333 0.990666 8.034 1.788C8.74467 2.568 9.1 3.69467 9.1 5.168V5.74H6.396V4.986C6.396 3.79 5.91933 3.192 4.966 3.192C4.01267 3.192 3.536 3.79 3.536 4.986C3.536 5.662 3.72667 6.30333 4.108 6.91C4.48933 7.49933 4.94867 8.03667 5.486 8.522C6.04067 9.00733 6.59533 9.51867 7.15 10.056C7.70467 10.576 8.17267 11.2347 8.554 12.032C8.93533 12.812 9.126 13.6787 9.126 14.632C9.126 16.1053 8.762 17.2407 8.034 18.038C7.306 18.818 6.24867 19.208 4.862 19.208C3.47533 19.208 2.418 18.818 1.69 18.038C0.962 17.2407 0.598 16.1053 0.598 14.632V13.514H3.302V14.814C3.302 15.9927 3.796 16.582 4.784 16.582C5.772 16.582 6.266 15.9927 6.266 14.814C6.266 14.138 6.07533 13.5053 5.694 12.916C5.31267 12.3093 4.84467 11.7633 4.29 11.278C3.75267 10.7927 3.20667 10.29 2.652 9.77C2.09733 9.23267 1.62933 8.574 1.248 7.794C0.866667 6.99667 0.676 6.12133 0.676 5.168ZM11.1546 0.799999H14.0146V14.84C14.0146 16.0187 14.5086 16.608 15.4966 16.608C16.4846 16.608 16.9786 16.0187 16.9786 14.84V0.799999H19.6826V14.658C19.6826 16.1313 19.3186 17.2667 18.5906 18.064C17.8626 18.844 16.8053 19.234 15.4186 19.234C14.0319 19.234 12.9746 18.844 12.2466 18.064C11.5186 17.2667 11.1546 16.1313 11.1546 14.658V0.799999ZM26.376 0.799999C29.2187 0.799999 30.64 2.29933 30.64 5.298V7.664C30.64 10.6627 29.2187 12.162 26.376 12.162H25.024V19H22.164V0.799999H26.376ZM26.376 3.4H25.024V9.562H26.376C26.844 9.562 27.1907 9.432 27.416 9.172C27.6587 8.912 27.78 8.47 27.78 7.846V5.116C27.78 4.492 27.6587 4.05 27.416 3.79C27.1907 3.53 26.844 3.4 26.376 3.4ZM35.3448 3.4V8.47H39.2708V11.07H35.3448V16.4H40.2848V19H32.4848V0.799999H40.2848V3.4H35.3448ZM51.469 19H48.557C48.3837 18.48 48.297 17.7347 48.297 16.764V13.904C48.297 13.072 48.1497 12.4827 47.855 12.136C47.5604 11.772 47.0837 11.59 46.425 11.59H45.437V19H42.577V0.799999H46.893C48.3664 0.799999 49.441 1.14667 50.117 1.84C50.793 2.516 51.131 3.56467 51.131 4.986V6.416C51.131 8.288 50.507 9.51867 49.259 10.108C50.5244 10.6453 51.157 11.9367 51.157 13.982V16.79C51.157 17.778 51.261 18.5147 51.469 19ZM46.815 3.4H45.437V8.99H46.555C47.127 8.99 47.5517 8.84267 47.829 8.548C48.1237 8.25333 48.271 7.75933 48.271 7.066V5.272C48.271 4.024 47.7857 3.4 46.815 3.4ZM57.848 11.46V8.86H61.852V14.632C61.852 16.1053 61.488 17.2407 60.76 18.038C60.032 18.818 58.9746 19.208 57.588 19.208C56.2013 19.208 55.144 18.818 54.416 18.038C53.688 17.2407 53.324 16.1053 53.324 14.632V5.168C53.324 3.69467 53.688 2.568 54.416 1.788C55.144 0.990666 56.2013 0.592 57.588 0.592C58.9746 0.592 60.032 0.990666 60.76 1.788C61.488 2.568 61.852 3.69467 61.852 5.168V6.936H59.148V4.986C59.148 3.79 58.654 3.192 57.666 3.192C56.678 3.192 56.184 3.79 56.184 4.986V14.814C56.184 15.9927 56.678 16.582 57.666 16.582C58.654 16.582 59.148 15.9927 59.148 14.814V11.46H57.848ZM66.506 19V12.968L62.892 0.799999H65.882L68.066 9.094L70.25 0.799999H72.98L69.366 12.968V19H66.506ZM78.6086 0.799999L80.7146 13.722L82.6646 0.799999H86.6426V19H83.9386V5.948L81.9626 19H79.2586L77.1266 6.13V19H74.6306V0.799999H78.6086Z" fill="white"/>
</symbol><symbol id="play_icon" viewBox="0 0 13 15">
<path d="M13 7.5L0.249999 14.8612L0.25 0.138783L13 7.5Z" fill="white"/>
</symbol><symbol id="vk_icon" viewBox="0 0 24 13">
<path fill-rule="evenodd" clip-rule="evenodd" d="M20.6554 8.26599C21.4515 9.00996 22.2918 9.70992 23.0058 10.5289C23.3212 10.8929 23.6199 11.2684 23.8483 11.6908C24.172 12.2912 23.8788 12.9519 23.3163 12.9878L19.82 12.9863C18.9182 13.0579 18.1988 12.7104 17.5939 12.1203C17.1098 11.6483 16.6615 11.146 16.1961 10.6581C16.0052 10.4587 15.8055 10.2711 15.5669 10.1228C15.0896 9.82623 14.6753 9.91703 14.4025 10.3935C14.1247 10.8781 14.0617 11.4148 14.0344 11.9549C13.997 12.7429 13.7481 12.9501 12.9211 12.9862C11.1537 13.066 9.47629 12.81 7.91806 11.9566C6.54426 11.2043 5.47894 10.1422 4.5517 8.93977C2.74634 6.59842 1.36379 4.02567 0.121208 1.38084C-0.158487 0.784951 0.0460603 0.465084 0.732957 0.453762C1.87358 0.432554 3.01405 0.434063 4.15601 0.452253C4.61959 0.458744 4.92649 0.713249 5.10549 1.13244C5.7226 2.58483 6.47771 3.96665 7.42553 5.24748C7.67794 5.58848 7.93532 5.92948 8.30184 6.16949C8.7073 6.43524 9.01602 6.34716 9.20677 5.91484C9.32781 5.64071 9.3808 5.34544 9.40808 5.05184C9.49845 4.04175 9.51035 3.03338 9.35186 2.02684C9.25455 1.39865 8.88488 0.991982 8.23 0.873108C7.89582 0.8125 7.94558 0.693475 8.10738 0.510898C8.38842 0.196012 8.65274 0 9.17964 0H13.1311C13.7532 0.117516 13.8913 0.385004 13.9765 0.984133L13.9799 5.18536C13.9731 5.4173 14.1009 6.10556 14.5374 6.25908C14.8867 6.36837 15.117 6.10088 15.3265 5.88887C16.2726 4.92776 16.9479 3.79192 17.5511 2.61578C17.8188 2.09861 18.049 1.56153 18.2721 1.02489C18.4373 0.626678 18.6967 0.430742 19.1653 0.439422L22.9684 0.442667C23.0811 0.442667 23.1952 0.444252 23.3044 0.46214C23.9453 0.566675 24.1209 0.830539 23.923 1.42952C23.6111 2.36927 23.0043 3.15241 22.411 3.93917C21.7768 4.77915 21.0985 5.59036 20.4696 6.43532C19.8917 7.20691 19.9376 7.59584 20.6554 8.26599Z" fill="white"/>
</symbol></svg>

<svg xmlns="http://www.w3.org/2000/svg" xmlns:xlink="http://www.w3.org/1999/xlink"><symbol id="fb_icon"><path d="M11.548.005L8.67 0C5.436 0 3.347 2.318 3.347 5.906V8.63H.453c-.25 0-.453.219-.453.49v3.945c0 .27.203.49.453.49h2.894v9.956c0 .27.202.489.452.489h3.776c.25 0 .452-.22.452-.49v-9.956h3.384c.25 0 .453-.219.453-.489l.001-3.946a.51.51 0 00-.132-.346.436.436 0 00-.32-.143H8.026V6.32c0-1.11.245-1.673 1.582-1.673h1.939c.25 0 .452-.22.452-.49V.494c0-.27-.202-.489-.452-.489z" fill="#fff"/></symbol><symbol id="insta_icon"><path d="M17.503 0H6.497A6.504 6.504 0 000 6.497v11.007A6.504 6.504 0 006.497 24h11.007A6.504 6.504 0 0024 17.504V6.497A6.504 6.504 0 0017.503 0zM12 18.562A6.57 6.57 0 015.438 12 6.57 6.57 0 0112 5.438 6.57 6.57 0 0118.562 12 6.57 6.57 0 0112 18.562zm6.72-11.577c-1.07 0-1.94-.87-1.94-1.939 0-1.07.87-1.94 1.94-1.94 1.069 0 1.939.87 1.939 1.94 0 1.07-.87 1.94-1.94 1.94z" fill="#fff"/><path d="M12 6.844A5.161 5.161 0 006.845 12 5.161 5.161 0 0012 17.155 5.161 5.161 0 0017.155 12 5.161 5.161 0 0012 6.844zm6.719-2.33a.533.533 0 10.001 1.066.533.533 0 00-.001-1.066z" fill="#fff"/></symbol><symbol id="logo"><path d="M.676 5.168c0-1.473.355-2.6 1.066-3.38C2.452.991 3.502.592 4.888.592c1.387 0 2.435.399 3.146 1.196.71.78 1.066 1.907 1.066 3.38v.572H6.396v-.754c0-1.196-.477-1.794-1.43-1.794s-1.43.598-1.43 1.794c0 .676.19 1.317.572 1.924.381.59.84 1.127 1.378 1.612.555.485 1.11.997 1.664 1.534.555.52 1.023 1.179 1.404 1.976.381.78.572 1.647.572 2.6 0 1.473-.364 2.609-1.092 3.406-.728.78-1.785 1.17-3.172 1.17-1.387 0-2.444-.39-3.172-1.17-.728-.797-1.092-1.933-1.092-3.406v-1.118h2.704v1.3c0 1.179.494 1.768 1.482 1.768s1.482-.59 1.482-1.768a3.43 3.43 0 00-.572-1.898 7.405 7.405 0 00-1.404-1.638c-.537-.485-1.083-.988-1.638-1.508-.555-.537-1.023-1.196-1.404-1.976C.867 6.997.676 6.121.676 5.168zM11.155.8h2.86v14.04c0 1.179.494 1.768 1.482 1.768s1.482-.59 1.482-1.768V.8h2.704v13.858c0 1.473-.364 2.609-1.092 3.406-.728.78-1.786 1.17-3.172 1.17-1.387 0-2.444-.39-3.172-1.17-.728-.797-1.092-1.933-1.092-3.406V.8zm15.221 0c2.843 0 4.264 1.5 4.264 4.498v2.366c0 2.999-1.421 4.498-4.264 4.498h-1.352V19h-2.86V.8h4.212zm0 2.6h-1.352v6.162h1.352c.468 0 .815-.13 1.04-.39.243-.26.364-.702.364-1.326v-2.73c0-.624-.121-1.066-.364-1.326-.225-.26-.572-.39-1.04-.39zm8.969 0v5.07h3.926v2.6h-3.926v5.33h4.94V19h-7.8V.8h7.8v2.6h-4.94zM51.469 19h-2.912c-.173-.52-.26-1.265-.26-2.236v-2.86c0-.832-.147-1.421-.442-1.768-.295-.364-.771-.546-1.43-.546h-.988V19h-2.86V.8h4.316c1.473 0 2.548.347 3.224 1.04.676.676 1.014 1.725 1.014 3.146v1.43c0 1.872-.624 3.103-1.872 3.692 1.265.537 1.898 1.829 1.898 3.874v2.808c0 .988.104 1.725.312 2.21zM46.815 3.4h-1.378v5.59h1.118c.572 0 .997-.147 1.274-.442.295-.295.442-.789.442-1.482V5.272c0-1.248-.485-1.872-1.456-1.872zm11.033 8.06v-2.6h4.004v5.772c0 1.473-.364 2.609-1.092 3.406-.728.78-1.785 1.17-3.172 1.17-1.387 0-2.444-.39-3.172-1.17-.728-.797-1.092-1.933-1.092-3.406V5.168c0-1.473.364-2.6 1.092-3.38.728-.797 1.785-1.196 3.172-1.196 1.387 0 2.444.399 3.172 1.196.728.78 1.092 1.907 1.092 3.38v1.768h-2.704v-1.95c0-1.196-.494-1.794-1.482-1.794s-1.482.598-1.482 1.794v9.828c0 1.179.494 1.768 1.482 1.768s1.482-.59 1.482-1.768V11.46h-1.3zM66.506 19v-6.032L62.892.8h2.99l2.184 8.294L70.25.8h2.73l-3.614 12.168V19h-2.86zM78.609.8l2.106 12.922L82.665.8h3.978V19h-2.704V5.948L81.963 19h-2.704L77.127 6.13V19H74.63V.8h3.978z" fill="#fff"/></symbol><symbol id="play_icon"><path d="M13 7.5L.25 14.861V.14L13 7.5z" fill="#fff"/></symbol><symbol id="vk_icon"><path fill-rule="evenodd" clip-rule="evenodd" d="M20.655 8.266c.796.744 1.637 1.444 2.35 2.263.316.364.615.74.843 1.162.324.6.03 1.26-.532 1.297l-3.496-.002c-.902.072-1.621-.276-2.226-.866-.484-.472-.933-.974-1.398-1.462a3.27 3.27 0 00-.63-.535c-.476-.297-.89-.206-1.164.27-.277.485-.34 1.022-.368 1.562-.037.788-.286.995-1.113 1.031-1.767.08-3.445-.176-5.003-1.03-1.374-.752-2.44-1.814-3.366-3.016C2.746 6.598 1.364 4.026.122 1.38-.159.786.045.466.732.455A97.704 97.704 0 014.156.452c.464.007.77.261.95.68.617 1.453 1.372 2.835 2.32 4.115.252.341.51.682.876.922.405.266.714.178.905-.254.12-.274.174-.57.201-.863.09-1.01.102-2.019-.056-3.025C9.255 1.399 8.885.992 8.23.873c-.334-.06-.284-.18-.123-.362C8.388.196 8.653 0 9.18 0h3.951c.622.118.76.385.845.984l.004 4.201c-.007.232.12.92.557 1.074.35.11.58-.158.79-.37.946-.961 1.62-2.097 2.224-3.273.268-.517.498-1.054.721-1.591.165-.398.425-.594.893-.586l3.803.004c.113 0 .227.001.336.02.641.104.817.368.619.967-.312.94-.919 1.722-1.512 2.51-.634.84-1.313 1.65-1.941 2.495-.578.772-.532 1.16.185 1.831z" fill="#fff"/></symbol></svg>
